X:61
T:Beneath this Consecrated roof. WHG.060
R:hymn
S:W.H.Giles MS,Bampton,Oxfordshire,1839p63
O:England
H:donated by Mrs W.R.Kettlewell to VWML,Apr 1927.
A:Bampton, Oxfordshire
N:Upside-down, and in a different hand. No title,
N:just words under the stave. No TS given.
N:In typical fashion, the book has been used from
N:both ends. The following tunes are given in the
N:order counting from the labelled end.
N:Bar 14 almost unreadable.
Z:PJHeadford – VMP 2009
M:2/2
L:1/4
Q:1/2=90
K:G
d2 cB|A2 B2|cd Bd/c/|(B2 A2)|\
d2 cB|A2 G2|cA GF|G4||
A2 AB|c2 B2|ed cB|(B2 A2)|\
d2 cB|A>F G2|cA GF|G4|]
W:Beneath this Consecrated roof again
W:Father of heaven we lift the pious strain
W:and give obedient to thy kind decree
W:the peaceful day to holyness and thee

